svgs/sharp-light/disc-drive.svg

<svg xmlns="http://www.w3.org/2000/svg" viewBox="0 0 512 512"><!--! Font Awesome Pro 6.6.0 by @fontawesome - https://fontawesome.com License - https://fontawesome.com/license (Commercial License) Copyright 2024 Fonticons, Inc. --><path d="M32 32l16 0 416 0 16 0 0 16 0 400 16 0 16 0 0 32-16 0-32 0L48 480l-32 0L0 480l0-32 16 0 16 0L32 48l0-16zM64 448l384 0 0-384L64 64l0 384zM256 128a128 128 0 1 0 0 256 128 128 0 1 0 0-256zM416 256A160 160 0 1 1 96 256a160 160 0 1 1 320 0zM256 224a32 32 0 1 1 0 64 32 32 0 1 1 0-64z"/></svg>

<svg xmlns="http://www.w3.org/2000/svg" viewBox="0 0 512 512"><!--! Font Awesome Pro 6.4.0 by @fontawesome - https://fontawesome.com License - https://fontawesome.com/license (Commercial License) Copyright 2023 Fonticons, Inc. --><path d="M32 32H48 464h16V48 448h16 16v32H496 464 48 16 0V448H16 32V48 32zM64 448H448V64H64V448zM256 128a128 128 0 1 0 0 256 128 128 0 1 0 0-256zM416 256A160 160 0 1 1 96 256a160 160 0 1 1 320 0zM256 224a32 32 0 1 1 0 64 32 32 0 1 1 0-64z"/></svg>
